X:6698
T:The Devil in Dublin
O:england
M:6/8
L:1/8
S:Armitt MS
N:The second group of quavers in the 3rd bar, B music have no stem
K:G major
G2Bd2B|e2cA3|BdB GBG|FAFD3|G2Bd2B|e2c ABc|dBG FAF|G3G2||AGA FGA|BAB GAB|
cBc ABc|dcd Bcd|ede cde|def gdB|c2A dcA|G3G3||
